lg/jetbrains-icon.svg

<svg viewBox="0 0 256 256" version="1.1" xmlns="http://www.w3.org/2000/svg" preserveAspectRatio="xMidYMid" height="1em" width="1em">
  <g>
    <polygon fill="#000000" points="0 3.55074489e-14 256 3.55074489e-14 256 256 0 256"/>
    <path d="M27.8613333,208 L123.861333,208 L123.861333,224 L27.8613333,224 L27.8613333,208 Z M23.8506667,66.0053333 L30.976,59.264 C32.3514173,61.4345182 34.6834523,62.8147022 37.248,62.976 C39.9786667,62.976 41.7706667,61.056 41.7706667,57.344 L41.7706667,32.0853333 L52.7786667,32.0853333 L52.7786667,57.4293333 C53.1113852,61.555986 51.6858228,65.631235 48.8533333,68.6506667 C46.1554697,71.2854923 42.5742806,72.8008798 38.8276806,72.917485 L37.888,72.9173333 C32.6662985,73.1276725 27.6787663,70.8354239 24.4375591,66.7851748 L23.8506667,66.0053333 Z M57.728,32.0853333 L89.856,32.0853333 L89.856,41.4293333 L68.5226667,41.4293333 L68.5226667,47.5306667 L87.68,47.5306667 L87.68,56.064 L68.6933333,56.064 L68.6933333,62.4213333 L90.0266667,62.4213333 L90.0266667,71.808 L57.6,71.808 L57.728,32.0853333 Z M105.514667,41.7706667 L93.568,41.7706667 L93.568,32.0853333 L128.597333,32.0853333 L128.597333,41.7706667 L116.608,41.7706667 L116.608,72.0213333 L105.514667,72.0213333 L105.514667,41.7706667 Z M28.288,87.808 L47.1466667,87.808 C51.101361,87.4827481 55.0211017,88.7585853 58.0266667,91.3493333 C59.7404093,93.0669954 60.6802242,95.4088293 60.6293333,97.8346667 C60.6948174,101.826876 58.2050905,105.415517 54.4426667,106.752 C59.1323087,107.611626 62.4988087,111.756403 62.3786667,116.522667 C62.3786667,123.733333 56.7893333,128 47.232,128 L28.288,128 L28.288,87.808 Z M49.6213333,100.138667 C49.6213333,97.92 47.8293333,96.7253333 44.5866667,96.7253333 L39.0826667,96.7253333 L39.0826667,103.722667 L44.416,103.722667 C47.744,103.722667 49.7066667,102.570667 49.7066667,100.266667 L49.6213333,100.138667 Z M45.7813333,111.488 L39.0826667,111.488 L39.0826667,118.869333 L45.9946667,118.869333 C49.408,118.869333 51.2853333,117.546667 51.2853333,115.2 C51.2056889,113.089422 49.7880178,111.685025 46.5813555,111.507153 L45.7813333,111.488 Z M88.704,128 L80.64,115.882667 L76.928,115.882667 L76.928,128 L65.8346667,128 L65.92,87.808 L83.6266667,87.808 C88.3617085,87.4223931 93.0524744,88.9603491 96.64,92.0746667 C98.8595852,94.3423444 100.122598,97.3628165 100.192137,100.513856 L100.181333,101.376 C100.338943,106.819446 97.0351085,111.766638 91.9466667,113.706667 L99.7418667,125.367467 L115.584,87.5093333 L126.250667,87.5093333 L143.317333,127.786667 L131.413333,127.786667 L128.554667,120.576 L113.066667,120.576 L110.208,128 L88.704,128 Z M120.832,100.650667 L116.309333,111.957333 L125.312,111.957333 L120.832,100.650667 Z M82.944,97.408 L77.0133333,97.408 L77.0133333,107.093333 L82.9866667,107.008 C86.6986667,107.008 88.96,105.173333 88.96,102.229333 C88.96,99.0293333 86.6133333,97.408 82.944,97.408 Z M145.066667,87.68 L156.16,87.68 L156.16,127.658667 L145.066667,127.658667 L145.066667,87.68 Z M160.256,87.68 L170.666667,87.68 L185.045333,109.013333 L185.045333,87.68 L196.010667,87.68 L196.010667,127.658667 L186.325333,127.658667 L171.264,105.728 L171.264,127.658667 L160.256,127.658667 L160.256,87.68 Z M197.845333,121.728 L203.989333,114.346667 C207.5879,117.355216 212.10017,119.054838 216.789333,119.168 C219.818667,119.168 221.397333,118.101333 221.397333,116.394667 C221.397333,115.105684 220.702375,114.303173 218.134686,113.457988 L216.916158,113.091611 C216.692815,113.029598 216.45906,112.966983 216.214462,112.90357 L214.613333,112.512 L214.613333,112.512 L213.737914,112.307519 L213.737914,112.307519 L212.034445,111.88575 L212.034445,111.88575 L210.401555,111.437741 C204.02302,109.578553 199.552,106.825563 199.552,100.010667 C199.552,92.5866667 205.44,87.2106667 215.04,87.2106667 C220.974194,86.9883115 226.794879,88.8781442 231.466667,92.544 L226.133333,100.138667 C222.905803,97.6999009 218.998356,96.3278203 214.954667,96.2133333 C212.266667,96.2133333 210.944,97.28 210.944,98.7733333 C210.944,100.125193 211.685289,100.921086 214.3115,101.741363 L215.555757,102.096096 C215.783479,102.156031 216.021651,102.216513 216.27069,102.277754 L217.898667,102.656 C227.072,104.661333 232.746667,107.648 232.746667,115.114667 C232.746667,122.992356 226.726353,127.600735 217.576273,127.899207 L216.618667,127.914667 C210.241852,128.186179 203.977216,126.270007 198.854373,122.505455 L197.845333,121.728 Z" fill="#FFFFFF"/>
  </g>
</svg>

<svg viewBox="0 0 256 256" xmlns="http://www.w3.org/2000/svg" preserveAspectRatio="xMidYMid" height="1em" width="1em">
  <path d="M0 0h256v256H0z"/>
  <path d="M27.861 208h96v16h-96v-16Zm-4.01-141.995 7.125-6.741a8.021 8.021 0 0 0 6.272 3.712c2.73 0 4.523-1.92 4.523-5.632V32.085h11.008V57.43a14.677 14.677 0 0 1-3.926 11.222 15.019 15.019 0 0 1-10.025 4.266h-.94a16.384 16.384 0 0 1-13.45-6.132l-.587-.78Zm33.877-33.92h32.128v9.344H68.523v6.102H87.68v8.533H68.693v6.357h21.334v9.387H57.6l.128-39.723Zm47.787 9.686H93.568v-9.686h35.03v9.686h-11.99v30.25h-11.093v-30.25ZM28.288 87.808h18.859c3.954-.325 7.874.95 10.88 3.541a8.917 8.917 0 0 1 2.602 6.486 9.301 9.301 0 0 1-6.186 8.917 9.685 9.685 0 0 1 7.936 9.77c0 7.211-5.59 11.478-15.147 11.478H28.288V87.808Zm21.333 12.33c0-2.218-1.792-3.413-5.034-3.413h-5.504v6.998h5.333c3.328 0 5.29-1.152 5.29-3.456l-.085-.128Zm-3.84 11.35h-6.698v7.381h6.912c3.413 0 5.29-1.322 5.29-3.669-.08-2.11-1.497-3.515-4.704-3.693l-.8-.019ZM88.704 128l-8.064-12.117h-3.712V128H65.835l.085-40.192h17.707a17.664 17.664 0 0 1 13.013 4.267 12.459 12.459 0 0 1 3.552 8.439l-.01.862a12.8 12.8 0 0 1-8.235 12.33l7.795 11.661 15.842-37.858h10.667l17.066 40.278h-11.904l-2.858-7.211h-15.488L110.208 128H88.704Zm32.128-27.35-4.523 11.307h9.003l-4.48-11.306Zm-37.888-3.242h-5.93v9.685l5.973-.085c3.712 0 5.973-1.835 5.973-4.779 0-3.2-2.347-4.821-6.016-4.821Zm62.123-9.728h11.093v39.979h-11.093V87.68Zm15.189 0h10.41l14.38 21.333V87.68h10.965v39.979h-9.686l-15.061-21.931v21.93h-11.008V87.68Zm37.59 34.048 6.143-7.381a20.736 20.736 0 0 0 12.8 4.821c3.03 0 4.608-1.067 4.608-2.773 0-1.29-.695-2.092-3.262-2.937l-1.219-.366a42.374 42.374 0 0 0-.702-.188l-1.6-.392-.876-.204-1.704-.422-1.632-.448c-6.379-1.86-10.85-4.612-10.85-11.427 0-7.424 5.888-12.8 15.488-12.8a25.088 25.088 0 0 1 16.427 5.333l-5.334 7.595a19.456 19.456 0 0 0-11.178-3.926c-2.688 0-4.011 1.067-4.011 2.56 0 1.352.741 2.148 3.368 2.968l1.244.355c.227.06.466.12.715.182l1.628.378c9.173 2.005 14.848 4.992 14.848 12.459 0 7.877-6.02 12.486-15.17 12.784l-.958.016a27.99 27.99 0 0 1-17.765-5.41l-1.009-.777Z" fill="#FFF"/>
</svg>
